Sources/FrostedUI/Resources/Icons.xcassets/pinTiltedFilled24.imageset/pin-tilted-filled-24.svg

<svg width="24" height="24" viewBox="0 0 24 24" fill="none" xmlns="http://www.w3.org/2000/svg" data-fui-icon="true">
  <path
    d="M12.6915 2.77661C13.8435 1.62491 15.7114 1.62502 16.8634 2.77661L21.1769 7.09009C22.3288 8.24207 22.3287 10.1099 21.1769 11.262L17.4767 14.9631C17.2956 15.1442 17.1583 15.3648 17.0773 15.6077L15.7316 19.6477C15.0381 21.7281 12.3975 22.3516 10.8468 20.801L7.52942 17.4846L3.99426 21.0198C3.70138 21.3127 3.22661 21.3126 2.93372 21.0198C2.64101 20.7269 2.64089 20.2521 2.93372 19.9592L6.46887 16.4241L3.15247 13.1077C1.60191 11.557 2.22538 8.91636 4.30579 8.2229L8.34583 6.8772C8.58882 6.7962 8.81021 6.65889 8.99133 6.47778L12.6915 2.77661Z"
    fill="currentColor"
  />
</svg>

<svg xmlns="http://www.w3.org/2000/svg" width="24" height="24" fill="none" data-fui-icon="true" viewBox="0 0 24 24"><path fill="currentColor" d="M12.692 2.777a2.95 2.95 0 0 1 4.171 0l4.314 4.313a2.95 2.95 0 0 1 0 4.172l-3.7 3.701a1.65 1.65 0 0 0-.4.645l-1.345 4.04c-.694 2.08-3.334 2.704-4.885 1.153l-3.318-3.316-3.535 3.535a.75.75 0 1 1-1.06-1.06l3.535-3.536-3.317-3.316c-1.55-1.551-.927-4.192 1.154-4.885l4.04-1.346c.243-.08.464-.218.645-.4z"/></svg>
